src/svg/horizontal-rule.svg

<svg height="16" width="10" xmlns="http://www.w3.org/2000/svg" viewBox="0 0 10 16">
  <path d="M1 7h2v2h1V3h-1v3H1V3H0v6h1V7z m9 2V7h-1v2h1z m0-3V4h-1v2h1z m-3 0V4h2v-1H6v6h1V7h2v-1H7zM0 13h10V11H0v2z" />
</svg>

<?xml version="1.0" encoding="UTF-8" standalone="no"?>
<svg width="10px" height="16px" viewBox="0 0 10 16" version="1.1" xmlns="http://www.w3.org/2000/svg" xmlns:xlink="http://www.w3.org/1999/xlink">
    <!-- Generator: Sketch 3.7.1 (28215) - http://www.bohemiancoding.com/sketch -->
    <title>horizontal-rule</title>
    <desc>Created with Sketch.</desc>
    <defs></defs>
    <g id="Octicons" stroke="none" stroke-width="1" fill="none" fill-rule="evenodd">
        <g id="horizontal-rule" fill="#000000">
            <path d="M1,7 L3,7 L3,9 L4,9 L4,3 L3,3 L3,6 L1,6 L1,3 L0,3 L0,9 L1,9 L1,7 L1,7 Z M10,9 L10,7 L9,7 L9,9 L10,9 L10,9 Z M10,6 L10,4 L9,4 L9,6 L10,6 L10,6 Z M7,6 L7,4 L9,4 L9,3 L6,3 L6,9 L7,9 L7,7 L9,7 L9,6 L7,6 L7,6 Z M0,13 L10,13 L10,11 L0,11 L0,13 L0,13 Z" id="Shape"></path>
        </g>
    </g>
</svg>
